assets/components_previews/overlay/light/context_menu.svg

<svg width="320" height="232" viewBox="0 0 320 232" fill="none" xmlns="http://www.w3.org/2000/svg">
<g filter="url(#filter0_dd_10186_24768)">
<rect x="88" y="64" width="144" height="104" rx="12" fill="white"/>
<rect x="112" y="76" width="96" height="10" rx="5" fill="#EBE4FF"/>
<path fill-rule="evenodd" clip-rule="evenodd" d="M232 99H88V98H232V99Z" fill="#F4F0FE"/>
<rect x="112" y="111" width="96" height="10" rx="5" fill="#EBE4FF"/>
<path fill-rule="evenodd" clip-rule="evenodd" d="M232 134H88V133H232V134Z" fill="#F4F0FE"/>
<rect x="112" y="146" width="96" height="10" rx="5" fill="#EBE4FF"/>
</g>
<g filter="url(#filter1_dd_10186_24768)">
<path d="M74.1803 50.1803C74.3451 50.0154 74.5889 49.9579 74.81 50.0316L89.5792 54.9547C89.8305 55.0384 90 55.2736 90 55.5385C90 55.8034 89.8305 56.0385 89.5792 56.1223L82.4865 58.4865L80.1223 65.5792C80.0385 65.8305 79.8034 66 79.5385 66C79.2736 66 79.0384 65.8305 78.9547 65.5792L74.0316 50.81C73.9579 50.5889 74.0154 50.3451 74.1803 50.1803Z" fill="#AA99EC"/>
<rect x="74" y="40" width="2" height="6" rx="1" fill="#AA99EC"/>
<rect x="66" y="43.4142" width="2" height="6" rx="1" transform="rotate(-45 66 43.4142)" fill="#AA99EC"/>
<rect x="64" y="52" width="2" height="6" rx="1" transform="rotate(-90 64 52)" fill="#AA99EC"/>
</g>
<defs>
<filter id="filter0_dd_10186_24768" x="68" y="56" width="184" height="144" filterUnits="userSpaceOnUse" color-interpolation-filters="sRGB">
<feFlood flood-opacity="0" result="BackgroundImageFix"/>
<feColorMatrix in="SourceAlpha" type="matrix" values="0 0 0 0 0 0 0 0 0 0 0 0 0 0 0 0 0 0 127 0" result="hardAlpha"/>
<feOffset dy="12"/>
<feGaussianBlur stdDeviation="10"/>
<feComposite in2="hardAlpha" operator="out"/>
<feColorMatrix type="matrix" values="0 0 0 0 0 0 0 0 0 0 0 0 0 0 0 0 0 0 0.03 0"/>
<feBlend mode="normal" in2="BackgroundImageFix" result="effect1_dropShadow_10186_24768"/>
<feColorMatrix in="SourceAlpha" type="matrix" values="0 0 0 0 0 0 0 0 0 0 0 0 0 0 0 0 0 0 127 0" result="hardAlpha"/>
<feOffset dy="2"/>
<feGaussianBlur stdDeviation="3"/>
<feComposite in2="hardAlpha" operator="out"/>
<feColorMatrix type="matrix" values="0 0 0 0 0 0 0 0 0 0 0 0 0 0 0 0 0 0 0.05 0"/>
<feBlend mode="normal" in2="effect1_dropShadow_10186_24768" result="effect2_dropShadow_10186_24768"/>
<feBlend mode="normal" in="SourceGraphic" in2="effect2_dropShadow_10186_24768" result="shape"/>
</filter>
<filter id="filter1_dd_10186_24768" x="44" y="32" width="66" height="66" filterUnits="userSpaceOnUse" color-interpolation-filters="sRGB">
<feFlood flood-opacity="0" result="BackgroundImageFix"/>
<feColorMatrix in="SourceAlpha" type="matrix" values="0 0 0 0 0 0 0 0 0 0 0 0 0 0 0 0 0 0 127 0" result="hardAlpha"/>
<feOffset dy="12"/>
<feGaussianBlur stdDeviation="10"/>
<feComposite in2="hardAlpha" operator="out"/>
<feColorMatrix type="matrix" values="0 0 0 0 0 0 0 0 0 0 0 0 0 0 0 0 0 0 0.03 0"/>
<feBlend mode="normal" in2="BackgroundImageFix" result="effect1_dropShadow_10186_24768"/>
<feColorMatrix in="SourceAlpha" type="matrix" values="0 0 0 0 0 0 0 0 0 0 0 0 0 0 0 0 0 0 127 0" result="hardAlpha"/>
<feOffset dy="2"/>
<feGaussianBlur stdDeviation="3"/>
<feComposite in2="hardAlpha" operator="out"/>
<feColorMatrix type="matrix" values="0 0 0 0 0 0 0 0 0 0 0 0 0 0 0 0 0 0 0.05 0"/>
<feBlend mode="normal" in2="effect1_dropShadow_10186_24768" result="effect2_dropShadow_10186_24768"/>
<feBlend mode="normal" in="SourceGraphic" in2="effect2_dropShadow_10186_24768" result="shape"/>
</filter>
</defs>
</svg>

<svg xmlns="http://www.w3.org/2000/svg" width="320" height="232" fill="none" viewBox="0 0 320 232"><g filter="url(#a)"><rect width="144" height="104" x="88" y="64" fill="#fff" rx="12"/><rect width="96" height="10" x="112" y="76" fill="#EBE4FF" rx="5"/><path fill="#F4F0FE" fill-rule="evenodd" d="M232 99H88v-1h144z" clip-rule="evenodd"/><rect width="96" height="10" x="112" y="111" fill="#EBE4FF" rx="5"/><path fill="#F4F0FE" fill-rule="evenodd" d="M232 134H88v-1h144z" clip-rule="evenodd"/><rect width="96" height="10" x="112" y="146" fill="#EBE4FF" rx="5"/></g><g fill="#AA99EC" filter="url(#b)"><path d="M74.18 50.18a.62.62 0 0 1 .63-.148l14.77 4.923a.615.615 0 0 1 0 1.167l-7.093 2.364-2.365 7.093a.615.615 0 0 1-1.167 0L74.032 50.81a.62.62 0 0 1 .148-.63"/><rect width="2" height="6" x="74" y="40" rx="1"/><rect width="2" height="6" x="66" y="43.414" rx="1" transform="rotate(-45 66 43.414)"/><rect width="2" height="6" x="64" y="52" rx="1" transform="rotate(-90 64 52)"/></g><defs><filter id="a" width="184" height="144" x="68" y="56" color-interpolation-filters="sRGB" filterUnits="userSpaceOnUse"><feFlood flood-opacity="0" result="BackgroundImageFix"/><feColorMatrix in="SourceAlpha" result="hardAlpha" values="0 0 0 0 0 0 0 0 0 0 0 0 0 0 0 0 0 0 127 0"/><feOffset dy="12"/><feGaussianBlur stdDeviation="10"/><feComposite in2="hardAlpha" operator="out"/><feColorMatrix values="0 0 0 0 0 0 0 0 0 0 0 0 0 0 0 0 0 0 0.03 0"/><feBlend in2="BackgroundImageFix" result="effect1_dropShadow_10186_24768"/><feColorMatrix in="SourceAlpha" result="hardAlpha" values="0 0 0 0 0 0 0 0 0 0 0 0 0 0 0 0 0 0 127 0"/><feOffset dy="2"/><feGaussianBlur stdDeviation="3"/><feComposite in2="hardAlpha" operator="out"/><feColorMatrix values="0 0 0 0 0 0 0 0 0 0 0 0 0 0 0 0 0 0 0.05 0"/><feBlend in2="effect1_dropShadow_10186_24768" result="effect2_dropShadow_10186_24768"/><feBlend in="SourceGraphic" in2="effect2_dropShadow_10186_24768" result="shape"/></filter><filter id="b" width="66" height="66" x="44" y="32" color-interpolation-filters="sRGB" filterUnits="userSpaceOnUse"><feFlood flood-opacity="0" result="BackgroundImageFix"/><feColorMatrix in="SourceAlpha" result="hardAlpha" values="0 0 0 0 0 0 0 0 0 0 0 0 0 0 0 0 0 0 127 0"/><feOffset dy="12"/><feGaussianBlur stdDeviation="10"/><feComposite in2="hardAlpha" operator="out"/><feColorMatrix values="0 0 0 0 0 0 0 0 0 0 0 0 0 0 0 0 0 0 0.03 0"/><feBlend in2="BackgroundImageFix" result="effect1_dropShadow_10186_24768"/><feColorMatrix in="SourceAlpha" result="hardAlpha" values="0 0 0 0 0 0 0 0 0 0 0 0 0 0 0 0 0 0 127 0"/><feOffset dy="2"/><feGaussianBlur stdDeviation="3"/><feComposite in2="hardAlpha" operator="out"/><feColorMatrix values="0 0 0 0 0 0 0 0 0 0 0 0 0 0 0 0 0 0 0.05 0"/><feBlend in2="effect1_dropShadow_10186_24768" result="effect2_dropShadow_10186_24768"/><feBlend in="SourceGraphic" in2="effect2_dropShadow_10186_24768" result="shape"/></filter></defs></svg>
